X:1
T:Eichendorff-Lieder
T:Der Soldat II
T:Eichendorff-Lieder
T:6. Der Soldat II
T:Hugo Wolf
T:Joseph von Eichendorff
T:OpenScore (CC0)
T:OpenScore (CC0)
T:OpenScore (CC0)
T:OpenScore (CC0)
C:Hugo Wolf
Z:Joseph von Eichendorff
Z:OpenScore (CC0)
%%score 1 { ( 2 5 ) | ( 3 4 ) }
L:1/8
Q:1/4=140
M:9/8
K:C
V:1 treble nm="Voice"
V:2 treble nm="Piano"
V:5 treble 
V:3 bass 
V:4 bass 
V:1
"^Eilig und heftig" z9 | z9 |[K:Eb] z9 |[K:treble] z9 |!p! E2 E G3/2 G/ G ^F =E F | %5
w: ||||Wa- gen musst du und flüch- tig er-|
w: ||||Seize your boo- ty while on- wards we're|
!<(! (G6!<)!!f! _e2) z |!p! A3/2 A/ A _c c c B A B |!mp!!<(! (_c6!<)!!mf! _g2) z |!f! f6 ef e | %9
w: beu- ten,|hin- ter uns schon durch die Nacht hör' ich's|schrei- ten,|schwing' auf * mein|
w: dash- ing,|close at our heels ghast- ly spec- tres come|rush- ing,|mount on * my|
 =d3/2 e/ _d c2 _c B c d | !>!e3 !>!A3 !>!_g3- | _g3 (B3{/_d} !>!_cB) A | _G z!f! f _g z z z2 z | %13
w: Ross dich nur schnell und küss' noch im|Flug mich, wild-|* schö- * * nes|Kind, ge- schwind,|
w: char- ger in haste, we'll kiss as we|speed on, wild|_ na- * * ture's|child, a- way,|
 z _G G G G G G __e _d | c z =g a z z z2 z | z A A A A A A _f e |!<(! =d3 z2 c _d2 z | %17
w: denn der Tod ist ein ra- scher Ge-|sell, ge- schwind,|denn der Tod ist ein ra- scher Ge-|sell, ge- schwind,|
w: it were death here a min- ute to|waste, then haste!|it were death here a min- ute to|waste, a- way,|
 z2 =d e2 =e!<)!!ff! f2 z | z9 | z!p! G G G G G G e d | c z z z2 z z2 z | !fermata!z9 |] %22
w: ge- schwind, ge- schwind,||denn der Tod ist ein ra- scher Ge-|sell.||
w: a- way, a- way!||it were death here a min- ute to|waste.||
V:2
[K:Eb]!p! [G,G]z[G,G] [G,G]z[G,G] [G,G]>[G,G][G,G] | [G,G]z[G,G] [G,G]z[G,G] [G,G]>[G,G][G,G] | %2
!<(! [G,G]z[G,G] [G,G]z[G,G]!<)!!f! [G,G]>!<(![G,G][G,G] | %3
 [G,G]z[G,G]!<)!!ff! [G,G]z[G,G] [G,G]>[G,G][G,G] |!pp! [G,CE]z[G,CE] [G,CE]z[G,CE] [=A,D]z[A,D] | %5
!<(! [G,G]>[G,G][G,G] [G,G]>[G,G][G,G]!<)!!f! [G,B,G]>[G,B,G][G,B,G] | %6
!pp! [_CEA]z[CEA] [CEA]z[CEA] [B,_FG]z[B,FG] | %7
!<(! [_C_c]>[Cc][Cc] [Cc]>[Cc]!<)![Cc]!f! [Cc]>[CEc][CEc] | %8
 [=Aef]>ff !>![=ae'f']>ff !>![ae'f']>ff | [=d=d']z!p![_d_d'] [cc']z[_c_c']!<(! [Bb][cc'][dd']!<)! | %10
!<(! [=G=g][Aa][Bb] [Aa][Bb][_c_c'] [=c=c'][_d_d']!<)![ee']- | %11
!f! [ee']!<(![_G_g][Aa] [Bb][_c_c'][=c=c'] [_d_d'][ee'][ff'] | %12
!ff! [_g_g']!<)! z z z2!f! !>![Ff]!>![_Gg] z !>![F,F] | %13
!>![_G,_G]!pp! [G,G][G,G] [G,G][G,G][G,G]!<(! [G,G][G,G][=G,=G]!<)! | %14
 [A,A] z z z2!f! !>![Gg]!>![Aa] z !>![G,G] | %15
 !>![A,A]!pp! [A,A][A,A] [A,A][A,A][A,A]!<(! [A,A][A,A]!<)![=A,=A] | %16
"_cresc." [B,B][B,B][B,B] [=B,=B][B,B][Cc] [_D_d][Dd][B,B] | %17
 [Cc][^C^c][Dd] [Ee][Ee][=E=e] [Ff][^F^f][Gg] | x!ff! a'a' a'a'a' a'a'a' | %19
 !>![aa']!>![gg'] z z2 z z2 z | z2 z z x x x z z | z2!8va(! [e'g'c'']!8va)! z2 z !fermata!z2 z |] %22
V:3
[K:Eb] z2 z!mf!!>(! ([E,E]3 [D,D]2!>)!!p! [G,,,G,,]) | %1
 z2 z!mf!!>(! ([E,E]3 [D,D]2!>)!!p! [G,,,G,,]) | z2 z !>![E,E]2 z[K:treble] [A,A]3- | %3
 [A,A]3 [FA=B]3- [FAB]2 z |[K:bass] [C,,G,,C,]z[C,,G,,C,] [C,,G,,C,]zC, [D,^F,]z[D,F,] | %5
 ([G,,,G,,][A,,,A,,][=A,,,=A,,] [B,,,B,,][=B,,,=B,,][C,,C,] [^C,,^C,][D,,D,][E,,E,]) | %6
 [A,,,E,,A,,]z[A,,,E,,A,,] [A,,,E,,A,,]zA,, _D,zD, | %7
 [_C,,_C,][C,,C,][=C,,=C,] [_D,,_D,][=D,,=D,][E,,E,] [=E,,=E,][F,,F,][_G,,_G,] | %8
[K:treble] [_CF]>[CF_c][CFc] [CFc]>[CFc][CFc] [CFc]>[CFc][CFc] | %9
 [B,FB]z[EG] [A,EA]z[=DF] [_D_G]z[B,G] | x3[K:bass] [_C,E,_C]3 A,2 =A, | %11
 [_D,_G,B,]3[K:treble] [_D_G] z z ((((!>![DA_c]3 | %12
 [_GB]))))[K:bass]!p! [_G,,_G,][G,,G,] [G,,G,][G,,G,][G,,G,] [G,,G,][G,,G,]!f! !>![F,,,F,,] | %13
!>![_G,,,_G,,] [G,,,G,,][G,,,G,,] [G,,,G,,][G,,,G,,][G,,,G,,] [G,,,G,,][G,,,G,,][=G,,,=G,,] | %14
 [A,,,A,,]!p! [A,,A,][A,,A,] [A,,A,][A,,A,][A,,A,] [A,,A,][A,,A,]!f! !>![G,,,G,,] | %15
 !>![A,,,A,,] [A,,,A,,][A,,,A,,] [A,,,A,,][A,,,A,,][A,,,A,,] [A,,,A,,][A,,,A,,][=A,,,=A,,] | %16
 [B,,,B,,][B,,,B,,][B,,,B,,] [=B,,,=B,,]z[C,,C,] [_D,,_D,]z[B,,,B,,] | %17
 [C,,C,][^C,,^C,][D,,D,] [E,,E,]z[=E,,=E,] [F,,F,][^F,,^F,][G,,G,] | %18
 [A,,A,][K:treble] [G=cf][Gcf] [Gcf][Gcf][Gcf] [Gcf][Gcf][Gcf] | %19
 !>![Gcf]!>![G=Bf] z z[K:bass]!mf!!>(! .G,,,.G,,, .G,,,.G,,,.G,,,!>)! | %20
 .G,,,.E,,.D,, .C,,!pp!"^R.H." .E,.D, .C,"^L.H." .E.D | C z z!ppp! !fermata![C,,E,,G,,]6 |] %22
V:4
[K:Eb] x9 | x9 | x6[K:treble] x3 | x9 |[K:bass] x9 | x9 | x9 | x9 |[K:treble] x9 | x9 | %10
 [_CE_c]3[K:bass] x3 [=C,_G,]3 | x3[K:treble] x6 | x[K:bass] x8 | x9 | x9 | x9 | x9 | x9 | %18
 x[K:treble] x8 | x4[K:bass] x5 | x3 x z z z x2 | x9 |] %22
V:5
[K:Eb] x9 | x9 | x9 | x9 | x9 | x9 | x9 | x9 | x9 | x9 | x9 | x9 | x9 | x9 | x9 | x9 | x9 | x9 | %18
 [Aa] e'd' _d'c'=b _b=a_a | x9 | x9 | x2!8va(! x!8va)! x6 |] %22

